X: 1455
T: Frank McNeice's Varsovianna
B: australian traditional tunes wiki
M:3/4
L:1/8
R: Varsovienne
Q: 1/4=100
K:G
V:1 
B>c|:"G"d2 b2 a2|g4 B>c|d2 g2 d2|"C"e3 f ga|
"G" b2 g2 d2|"D7"a4 g>e|d2 e2 f2|1"G"g4 z2:|2 "D7"a2 z2 "G"G>B||
|:"D7"e2 "G"d>B G>B|"D7"e2 "G"d>B G>B|"D7"e2 "G"d>B G>g|"D7"f2 f2 A>c|
e2 d>c A>c|e2 d>c A>c|e2 f2 f2|1"G" g2 g2 G>B:|2 "D7"a2 "G"g2|]
% abcbook-tune_id 6342d53a9ad0a795f70229ff


% abcbook-boost 0
% abcbook-tablature 
% abcbook-transpose 
% abcbook-lastupdated 1665324365890
% abcbook-soundfonts 
% abcbook-repeats 1
% NFF Book 2016

